icons/24x24_headset_add_outline.svg

<svg xmlns="http://www.w3.org/2000/svg" width="24" height="24" viewBox="0 0 24 24">
  <path d="M17,14.8026932 L17,9 C17,6.23857625 14.7614237,4 12,4 C9.23857625,4 7,6.23857625 7,9 L7,16 L4,16 C2.8954305,16 2,15.1045695 2,14 L2,10 C2,8.8954305 2.8954305,8 4,8 L5.07088886,8 C5.55611852,4.60770586 8.47352809,2 12,2 C15.5264719,2 18.4438815,4.60770586 18.9291111,8 L20,8 C21.1045695,8 22,8.8954305 22,10 L22,14 C22,14.1130364 21.9906226,14.2238826 21.9726033,14.3318031 C21.3548033,14.1168253 20.6910446,14 20,14 L20,10 L19,10 L19,14.0829584 C18.2820765,14.2034032 17.6073842,14.4513404 17,14.8026932 Z M14.0016525,19.8577798 C14.0005528,19.9050534 14,19.9524621 14,20 C14,20.6486005 14.1029151,21.2731639 14.2933063,21.8582512 C13.8761132,21.9510357 13.4432577,22 13,22 C12.9823227,21.9999699 12.4823227,21.9999699 11.5,22 C10.6715729,22 10,21.3284271 10,20.5 C10,19.6715729 10.6715729,19 11.5,19 L12.5,19 C13.1104267,19 13.6356896,19.3646293 13.8698646,19.8879636 C13.914071,19.8786372 13.9580048,19.8685714 14.0016525,19.8577798 Z M5,10 L4,10 L4,14 L5,14 L5,10 Z M21,19 L23,19 C23.5522847,19 24,19.4477153 24,20 C24,20.5522847 23.5522847,21 23,21 L21,21 L21,23 C21,23.5522847 20.5522847,24 20,24 C19.4477153,24 19,23.5522847 19,23 L19,21 L17,21 C16.4477153,21 16,20.5522847 16,20 C16,19.4477153 16.4477153,19 17,19 L19,19 L19,17 C19,16.4477153 19.4477153,16 20,16 C20.5522847,16 21,16.4477153 21,17 L21,19 Z"/>
</svg>

<svg width="24" height="24" fill="none" xmlns="http://www.w3.org/2000/svg"><path d="M17 14.803V9A5 5 0 0 0 7 9v7H4a2 2 0 0 1-2-2v-4a2 2 0 0 1 2-2h1.07a7.002 7.002 0 0 1 13.86 0H20a2 2 0 0 1 2 2v4c0 .113-.01.224-.027.332A5.99 5.99 0 0 0 20 14v-4h-1v4.083a5.958 5.958 0 0 0-2 .72Zm-2.998 5.055a5.995 5.995 0 0 0 .292 2c-.418.093-.85.142-1.294.142h-1.5a1.5 1.5 0 0 1 0-3h1a1.5 1.5 0 0 1 1.37.888l.132-.03ZM5 10H4v4h1v-4Zm16 9h2a1 1 0 1 1 0 2h-2v2a1 1 0 1 1-2 0v-2h-2a1 1 0 1 1 0-2h2v-2a1 1 0 1 1 2 0v2Z" fill="#000"/></svg>
